!!!COM: Beethoven
!!!OTL: Zwolf Variationen uber das Menuett a la Vigano von J. Haibel
!!!Variation: Variation 12 g
**function	**harm	**kern	**kern
*	*	*clefF4	*clefG2
*	*	*k[]	*k[]
*M3/4	*M3/4	*M3/4	*M3/4
*C:	*C:	*C:	*C:
4.T	4.V	4.r	8g'L
.	.	.	8a'
.	.	.	8b'J
=218	=218	=218	=218
2.T	2.I	8C	16cLL
.	.	.	16cc
.	.	4C	16e
.	.	.	16ccJJ
.	.	.	16cLL
.	.	.	16cc
.	.	8GL	16e
.	.	.	16ccJJ
.	.	8E	16cLL
.	.	.	16cc
.	.	8CJ	16e
.	.	.	16ccJJ
=219	=219	=219	=219
2.T	2.Vb	8BB	16dLL
.	.	.	16dd
.	.	4BB	16g
.	.	.	16ddJJ
.	.	.	16dLL
.	.	.	16dd
.	.	8GL	16g
.	.	.	16ddJJ
.	.	8D	16dLL
.	.	.	16dd
.	.	8BBJ	16g
.	.	.	16ddJJ
=220	=220	=220	=220
2.T	2.V7d/IV	8BB-	16eLL
.	.	.	16ee
.	.	4BB-	16cc
.	.	.	16eeJJ
.	.	.	16eLL
.	.	.	16ee
.	.	8GL	16cc
.	.	.	16eeJJ
.	.	8E	16eLL
.	.	.	16ee
.	.	8BB-J	16cc
.	.	.	16eeJJ
=221	=221	=221	=221
2.P	2.IVb	8AA	16fLL
.	.	.	16ff
.	.	4AA	16cc
.	.	.	16ffJJ
.	.	.	16fLL
.	.	.	16ff
.	.	8FL	16cc
.	.	.	16ffJJ
.	.	8C	16fLL
.	.	.	16ff
.	.	8AAJ	16cc
.	.	.	16ffJJ
=222	=222	=222	=222
2.P	2.ivb	8AA-	16fLL
.	.	.	16ff
.	.	4AA-	16cc
.	.	.	16ffJJ
.	.	.	16fLL
.	.	.	16ff
.	.	8FL	16cc
.	.	.	16ffJJ
.	.	8C	16fLL
.	.	.	16ff
.	.	8AA-J	16cc
.	.	.	16ffJJ
=223	=223	=223	=223
2.D	2.V7	8GG	16fLL
.	.	.	16ff
.	.	4GG	16b
.	.	.	16ffJJ
.	.	.	16fLL
.	.	.	16ff
.	.	8FL	16b
.	.	.	16ffJJ
.	.	8D	16fLL
.	.	.	16ff
.	.	8GGJ	16b
.	.	.	16ffJJ
=224	=224	=224	=224
2.P	2.viioD7/V/II	8GG#	16fLL
.	.	.	16ff
.	.	4GG#	16b
.	.	.	16ffJJ
.	.	.	16fLL
.	.	.	16ff
.	.	8FL	16b
.	.	.	16ffJJ
.	.	8D	16fLL
.	.	.	16ff
.	.	8GG#J	16b
.	.	.	16ffJJ
=225	=225	=225	=225
2.P	2.Cc/II	16AALL	4f# 4a 4dd 4ff#
.	.	16D	.
.	.	16F#	.
.	.	16AJJ	.
.	.	16AALL	8r
.	.	16D	.
.	.	16F#	(8aaL
.	.	16AJJ	.
.	.	16AALL	8ff#
.	.	16D	.
.	.	16F#	8ddJ)
.	.	16AJJ	.
=226	=226	=226	=226
2.P	2.V7/II	16AALL	4cc#
.	.	16E	.
.	.	16G	.
.	.	16AJJ	.
.	.	16AALL	8r
.	.	16E	.
.	.	16G	(8ggL
.	.	16AJJ	.
.	.	16AALL	8ee
.	.	16E	.
.	.	16G	8cc#J)
.	.	16AJJ	.
=227	=227	=227	=227
2.P	2.Cc/II	16AALL	4dd
.	.	16D	.
.	.	16F#	.
.	.	16AJJ	.
.	.	16AALL	8r
.	.	16D	.
.	.	16F#	(16bbLL
.	.	16AJJ	16aaJJ
.	.	16AALL	16ggLL
.	.	16D	16ff#
.	.	16F#	16ee
.	.	16AJJ	16ddJJ
=228	=228	=228	=228
2.P	2.V7/II	16AALL	16cc#LL
.	.	16E	16b
.	.	16G	16a
.	.	16AJJ	16gJJ
.	.	16AALL	16f#LL
.	.	16E	16e
.	.	16G	16d
.	.	16AJJ	16c#JJ
.	.	16AALL	16BLL
.	.	16E	16A
.	.	16G	16B
.	.	16AJJ	16c#JJ)
=229	=229	=229	=229
2.P	2.Cc/II	16AALL	4d
.	.	16D	.
.	.	16F#	.
.	.	16AJJ	.
.	.	16AALL	8r
.	.	16D	.
.	.	16F#	(16gg#LL
.	.	16AJJ	16aaJJ
.	.	16AALL	16ggLL
.	.	16D	16ff#
.	.	16F#	16ee
.	.	16AJJ	16ddJJ)
=230	=230	=230	=230
2.P	2.V7/II	16AALL	4cc#
.	.	16E	.
.	.	16G	.
.	.	16AJJ	.
.	.	16AALL	8r
.	.	16E	.
.	.	16G	(16aaLL
.	.	16AJJ	16ggJJ
.	.	16AALL	16ff#LL
.	.	16E	16ee
.	.	16G	16dd
.	.	16AJJ	16cc#JJ)
=231	=231	=231	=231
2.P	2.Cc/II	16AALL	4dd
.	.	16D	.
.	.	16F#	.
.	.	16AJJ	.
.	.	16AALL	8r
.	.	16D	.
.	.	16F#	(16gg#LL
.	.	16AJJ	16aaJJ
.	.	16AALL	16ggLL
.	.	16D	16ff#
.	.	16F#	16ee
.	.	16AJJ	16ddJJ
=232	=232	=232	=232
2.P	2.V7/II	16AALL	16cc#LL
.	.	16E	16b
.	.	16G	16a
.	.	16AJJ	16gJJ
.	.	16AALL	16f#LL
.	.	16E	16e
.	.	16G	16d
.	.	16AJJ	16c#JJ
.	.	16AALL	16BLL
.	.	16E	16A
.	.	16G	16B
.	.	16AJJ	16c#JJ)
=233	=233	=233	=233
2.P	2.I/II	4D 4F#	16dLL
.	.	.	16e
.	.	.	16f#
.	.	.	16gJJ
.	.	4r	16aLL
.	.	.	16b
.	.	.	16cc#
.	.	.	16ddJJ
.	.	4r	16cc#LL
.	.	.	16dd
.	.	.	16cc#
.	.	.	16ddJJ
*	*	*clefG2	*
=234	=234	=234	=234
2.P	2.V7b/V	(8aL	16ccLL
.	.	.	16dd
.	.	8g	16cc
.	.	.	16ddJJ
.	.	8f#	16ccLL
.	.	.	16dd
.	.	8g	16cc
.	.	.	16ddJJ
.	.	8a	16ccLL
.	.	.	16dd
.	.	8f#J)	16cc
.	.	.	16ddJJ
=235	=235	=235	=235
2.D	2.v	4g	16b-LL
.	.	.	16cc
.	.	.	16dd
.	.	.	16eeJJ
.	.	4r	16ff#LL
.	.	.	16gg
.	.	.	16ff#
.	.	.	16ggJJ
.	.	4r	16ff#LL
.	.	.	16gg
.	.	.	16aa
.	.	.	16ggJJ
=236	=236	=236	=236
2.D	2.V7b	(8ddL	16ffLL
.	.	.	16gg
.	.	8cc	16ff
.	.	.	16ggJJ
.	.	8b	16ffLL
.	.	.	16gg
.	.	8cc	16ff
.	.	.	16ggJJ
.	.	8dd	16ffLL
.	.	.	16gg
.	.	8bJ)	16ff
.	.	.	16ggJJ
=237	=237	=237	=237
2.T	2.i	4cc	16ee-LL
.	.	.	16ff
.	.	.	16gg
.	.	.	16aaJJ
.	.	4r	16bbLL
.	.	.	16ccc
.	.	.	16bb
.	.	.	16cccJJ
.	.	4r	16bbLL
.	.	.	16ccc
.	.	.	16ddd
.	.	.	16cccJJ
=238	=238	=238	=238
2.T	2.V7b/IV	(8ggL	16bb-LL
.	.	.	16ccc
.	.	8ff	16bb-
.	.	.	16cccJJ
.	.	8ee	16bb-LL
.	.	.	16ccc
.	.	8ff	16bb-
.	.	.	16cccJJ
.	.	8gg	16bb-LL
.	.	.	16ccc
.	.	8eeJ)	16bb-
.	.	.	16cccJJ
=239	=239	=239	=239
2.T	2.V7b/-III	(8ffL	16aa-LL
.	.	.	16ccc
.	.	8ee-	16aa-
.	.	.	16cccJJ
.	.	8dd	16aa-LL
.	.	.	16bb-
.	.	8ee-	16aa-
.	.	.	16bb-JJ
.	.	8ff	16aa-LL
.	.	.	16bb-
.	.	8ddJ)	16aa-
.	.	.	16bb-JJ
=240	=240	=240	=240
4T	4-III	(8ee-L	16ggLL
.	.	.	16bb-
.	.	8dd	16gg
.	.	.	16bb-JJ
2T	2-VI7b	8cc	16ggLL
.	.	.	16aa-
.	.	8dd	16gg
.	.	.	16aa-JJ
.	.	8ee-	16ggLL
.	.	.	16aa-
.	.	8ccJ)	16gg
.	.	.	16aa-JJ
=241	=241	=241	=241
2.T	2.V7b	(8ddL	16ffLL
.	.	.	16aa-
.	.	8cc	16ff
.	.	.	16aa-JJ
.	.	8b	16ffLL
.	.	.	16gg
.	.	8cc	16ff
.	.	.	16ggJJ
.	.	8dd	16ffLL
.	.	.	16gg
.	.	8bJ)	16ff
.	.	.	16ggJJ
=242	=242	=242	=242
2.T	2.i	8cc'L	16ee-LL
.	.	.	16gg
.	.	8b-'	16ee-
.	.	.	16ddJJ
.	.	8a-'	16ccLL
.	.	.	16ee-
.	.	8g'	16cc
.	.	.	16b-JJ
.	.	8f'	16a-LL
.	.	.	16cc
.	.	8e-'J	16a-
.	.	.	16gJJ
*	*	*clefF4	*
=243	=243	=243	=243
2.T	2.V7c/-III	8dL	16fLL
.	.	.	16a-
.	.	8c	16f
.	.	.	16e-JJ
.	.	8B-	16dLL
.	.	.	16f
.	.	8A-	16d
.	.	.	16cJJ
.	.	8G	16B-LL
.	.	.	16d
.	.	8FJ	16B-
.	.	.	16A-JJ
*	*	*	*clefF4
=244	=244	=244	=244
2.T	2.-III	8E-L	16GLL
.	.	.	16B-
.	.	8DJ	16G
.	.	.	16FJJ
.	.	8CL	16E-LL
.	.	.	16G
.	.	8BB-J	16E-
.	.	.	16DJJ
.	.	8AA-L	16CLL
.	.	.	16E-
.	.	8GGJ	16C
.	.	.	16BB-JJ
=245	=245	=245	=245
4P	4iv	4FF	4AA-
2P	2viioD7	4r	4BB 4D 4A- 4B
.	.	4r	4r
=246	=246	=246	=246
2.P	2.viioD7/V	4FFF# 4FF#	4r
.	.	4r	4C 4E- 4A 4c
.	.	4r	4r
=247	=247	=247	=247
2.D	2.V	4GGG	16GLL
.	.	.	16A
.	.	.	16G
.	.	.	16F#JJ
.	.	4.GG	16GLL
.	.	.	16B
.	.	.	16A
.	.	.	16cJJ
.	.	.	16BLL
.	.	.	16d
.	.	8BB	16B
.	.	.	16GJJ
=248	=248	=248	=248
2.D	2.Ic	(4C	16ALL
.	.	.	16B
.	.	.	16A
.	.	.	16G#JJ
.	.	4.GG)	16ALL
.	.	.	16c
.	.	.	16B
.	.	.	16dJJ
*	*	*	*clefG2
.	.	.	16cLL
.	.	.	16e
.	.	8C	16c
.	.	.	16AJJ
=249	=249	=249	=249
2.D	2.V7	(4D	16BLL
.	.	.	16c
.	.	.	16B
.	.	.	16AJJ
.	.	4.GG)	16BLL
.	.	.	16d
.	.	.	16c
.	.	.	16eJJ
.	.	.	16dLL
.	.	.	16f
.	.	8D	16d
.	.	.	16BJJ
=250	=250	=250	=250
2.D	2.Ic	(4E	16cLL
.	.	.	16d
.	.	.	16c
.	.	.	16BJJ
.	.	4.GG)	16cLL
.	.	.	16e
.	.	.	16d
.	.	.	16fJJ
.	.	.	16eLL
.	.	.	16g
.	.	8E	16e
.	.	.	16cJJ
=251	=251	=251	=251
2.D	2.V7	[2.GG [2.BB [2.D [2.F	(16dLL
.	.	.	16e
.	.	.	16f
.	.	.	16gJJ
.	.	.	16aLL
.	.	.	16b-
.	.	.	16b
.	.	.	16ccJJ
.	.	.	16cc#LL
.	.	.	16dd
.	.	.	16ee-
.	.	.	16eeJJ
=252	=252	=252	=252
2.D	2.V7	2.GG] 2.BB_ 2.D_ 2.F_	16ffLL
.	.	.	16ff#
.	.	.	16gg
.	.	.	16gg#JJ
.	.	.	16aaLL
.	.	.	16bb-
.	.	.	16bb
.	.	.	16cccJJ
.	.	.	16ccc#LL
.	.	.	16ddd
.	.	.	16eee-
.	.	.	16eeeJJ)
=253	=253	=253	=253
2.D	2.viioD7/vi	[2.GG# 2.BB_ 2.D_ 2.F_	16ffLL
.	.	.	16fff
.	.	.	16ee
.	.	.	16eeeJJ
.	.	.	16ffLL
.	.	.	16fff
.	.	.	16ee
.	.	.	16eeeJJ
.	.	.	16ffLL
.	.	.	16fff
.	.	.	16ee
.	.	.	16eeeJJ
=254	=254	=254	=254
2.D	2.viioD7/vi	2.GG#] 2.BB] 2.D] 2.F]	16ffLL
.	.	.	16fff
.	.	.	16ff
.	.	.	16fffJJ
.	.	.	16eeLL
.	.	.	16eee
.	.	.	16dd
.	.	.	16dddJJ
.	.	.	16ccLL
.	.	.	16ccc
.	.	.	16b
.	.	.	16bbJJ
=255	=255	=255	=255
2.T	2.vi	4AA 4C 4E	8r
.	.	.	(8bbL
.	.	4r	8ddd')
.	.	.	(8ccc
.	.	4r	8bb')
.	.	.	(8cccJ
=256	=256	=256	=256
2.T	2.vi	2.r	8eee'L)
.	.	.	(8ccc
.	.	.	8bb')
.	.	.	(8ccc
.	.	.	8ddd')
.	.	.	8cccJ
=257	=257	=257	=257
2.P	2.ii7b	4F 4A 4c 4d	8r
.	.	.	(8gg#L
.	.	4r	8bb')
.	.	.	(8aa
.	.	4r	8gg#')
.	.	.	(8aaJ
=258	=258	=258	=258
2.P	2.ii7b	2.r	8ccc'L)
.	.	.	(8aa
.	.	.	8gg#')
.	.	.	(8aa
.	.	.	8bb')
.	.	.	8aaJ
=259	=259	=259	=259
2.D	2.Cc	4G 4c 4e	8r
.	.	.	(8ff#L
.	.	4r	8aa')
.	.	.	(8gg
.	.	4r	8ff#')
.	.	.	(8ggJ
=260	=260	=260	=260
2.D	2.Cc	2.r	8ff#'L)
.	.	.	(8gg
.	.	.	8aa
.	.	.	8gg
.	.	.	8ff
.	.	.	8eeJ)
=261	=261	=261	=261
2.D	2.V7	2.G 2.B 2.d 2.f	[2.dd
=262	=262	=262	=262
2.D	2.viioD7/vi	2.G# 2.B 2.d 2.f	4dd_
.	.	.	(8.ddL]
.	.	.	16ccJk
.	.	.	8.eeL
.	.	.	16ddJk)
=263	=263	=263	=263
2.T	2.vi	16r	4cc
.	.	16ALL	.
.	.	16c	.
.	.	16eJJ	.
.	.	4a	16r
.	.	.	16eeLL
.	.	.	16ff
.	.	.	16ggJJ
.	.	4r	16aaLL
.	.	.	16bb
.	.	.	16ccc
.	.	.	16dddJJ
=264	=264	=264	=264
2.T	2.vi	2.r	16eeeLL
.	.	.	16ddd#
.	.	.	16eee
.	.	.	16ddd#JJ
.	.	.	16eeeLL
.	.	.	16ddd
.	.	.	16ccc
.	.	.	16bbJJ
.	.	.	16aaLL
.	.	.	16gg
.	.	.	16ff
.	.	.	16eeJJ
=265	=265	=265	=265
2.P	2.V7b/V	2.F# 2.A 2.c 2.d	[2.dd
=266	=266	=266	=266
2.D	2.V7	2.G 2.B 2.d 2.f	2.dd]
=267	=267	=267	=267
2.T	2.I	16r	4ee
.	.	16CCLL	.
.	.	16EE	.
.	.	16GGJJ	.
.	.	4C	16r
.	.	.	16ELL
.	.	.	16G
.	.	.	16cJJ
.	.	16r	16e
.	.	16CLL	16eLL
.	.	16E	16g
.	.	16GJJ	16ccJJ
=268	=268	=268	=268
2.T	2.I	16c	16ee
*	*	*clefG2	*
.	.	16cLL	16eeLL
.	.	16e	16gg
.	.	16gJJ	16cccJJ
.	.	(16ccLL	(16eeeLL
.	.	16dd	16fff
.	.	16cc	16eee
.	.	16ddJJ	16fffJJ
.	.	16ccLL	16eeeLL
.	.	16dd	16fff
.	.	16cc	16eee
.	.	16ddJJ)	16fffJJ)
=269	=269	=269	=269
2.D	2.V7	2.g; 2.b; 2.dd; 2.ff;	2.ddd;
*-	*-	*-	*-
